#ifndef USERPREFS_HAS_SPLASH

    #if defined(ELECROW_ThinkNode_M1)
        #define icon_width 150
        #define icon_height 84
        static uint8_t icon_bits[] = {
             0x00, 0x00, 0x00, 0x00, 0x00, 0x00, 0x00, 0x00, 0x00, 0x08, 0x00, 0x00,
            0x00, 0x00, 0x00, 0x00, 0x00, 0x00, 0x00, 0x00, 0x00, 0x00, 0x00, 0x00,
            0x00, 0x00, 0x00, 0x00, 0x1F, 0x00, 0x00, 0x00, 0x00, 0x00, 0x00, 0x00,
            0x00, 0x00, 0x00, 0x00, 0x00, 0x00, 0x00, 0x00, 0x00, 0x00, 0x80, 0x3B,
            0x00, 0x00, 0x00, 0x00, 0x00, 0x00, 0x00, 0x00, 0x00, 0x00, 0x00, 0x00,
            0x00, 0x00, 0x00, 0x00, 0x00, 0x80, 0x60, 0x00, 0x00, 0x00, 0x00, 0x00,
            0x00, 0x00, 0x00, 0x00, 0x00, 0x00, 0x00, 0x00, 0x00, 0x00, 0x00, 0x00,
            0xC0, 0x4E, 0x00, 0x00, 0x00, 0x00, 0x00, 0x00, 0x00, 0x00, 0x00, 0x00,
            0x00, 0x00, 0x00, 0x00, 0x00, 0x00, 0x00, 0xC0, 0xDE, 0x00, 0x00, 0x00,
            0x00, 0x00, 0x00, 0x00, 0x00, 0x00, 0x00, 0x00, 0x00, 0x00, 0x00, 0x00,
            0x00, 0x00, 0xC0, 0x64, 0x00, 0x00, 0x00, 0x00, 0x00, 0x00, 0x00, 0x00,
            0x00, 0x00, 0x00, 0x00, 0x00, 0x00, 0x00, 0x00, 0x00, 0xF0, 0xF1, 0x03,
            0x00, 0x00, 0x00, 0x00, 0x00, 0x00, 0x00, 0x00, 0x00, 0x00, 0x00, 0x00,
            0x00, 0x00, 0x00, 0x00, 0x1C, 0x3F, 0x07, 0x00, 0x00, 0x00, 0x00, 0x00,
            0x00, 0x00, 0x00, 0x00, 0x00, 0x00, 0x00, 0x00, 0x00, 0x00, 0x00, 0x87,
            0x55, 0x38, 0x00, 0x00, 0x00, 0x00, 0x00, 0x00, 0x00, 0x00, 0x00, 0x00,
            0x00, 0x00, 0x00, 0x00, 0x00, 0xC0, 0x81, 0x40, 0x70, 0x00, 0x00, 0x00,
            0x00, 0x00, 0x00, 0x00, 0x00, 0x00, 0x00, 0x00, 0x00, 0x00, 0x00, 0x00,
            0x70, 0xC0, 0xC0, 0xC0, 0x03, 0x00, 0x00, 0x00, 0x00, 0x00, 0x00, 0x00,
            0x00, 0x00, 0x00, 0x00, 0x00, 0x00, 0x00, 0x1C, 0x60, 0x80, 0x00, 0x06,
            0x00, 0x00, 0x00, 0x00, 0x00, 0x00, 0x00, 0x00, 0x00, 0x00, 0x00, 0x00,
            0x00, 0x00, 0x07, 0x20, 0x80, 0x01, 0x1C, 0x00, 0x00, 0x00, 0x00, 0x00,
            0x00, 0x00, 0x00, 0x00, 0x00, 0x00, 0x00, 0x00, 0xC0, 0x01, 0x10, 0x00,
            0x01, 0x70, 0x00, 0x00, 0x00, 0x00, 0x00, 0x00, 0x00, 0x00, 0x00, 0x00,
            0x00, 0x00, 0x00, 0x30, 0x00, 0x10, 0x00, 0x02, 0xC0, 0x03, 0x00, 0x00,
            0x00, 0x00, 0x00, 0x00, 0x00, 0x00, 0x00, 0x00, 0x00, 0x00, 0x1C, 0x00,
            0x18, 0x00, 0x06, 0x00, 0x07, 0x00, 0x00, 0x00, 0x00, 0x00, 0x00, 0x00,
            0x00, 0x00, 0x00, 0x00, 0x00, 0x07, 0x00, 0x0C, 0x00, 0x06, 0x00, 0x1C,
            0x00, 0x00, 0x00, 0x00, 0x00, 0x00, 0x00, 0x00, 0x00, 0x00, 0xC0, 0xC1,
            0x00, 0x00, 0x04, 0x00, 0x08, 0x00, 0x70, 0x70, 0x00, 0x00, 0x00, 0x00,
            0x00, 0x00, 0x00, 0x00, 0x00, 0x60, 0xB7, 0x00, 0x00, 0x02, 0x00, 0x08,
            0x00, 0xC0, 0xFD, 0x00, 0x00, 0x00, 0x00, 0x00, 0x00, 0x00, 0x00, 0x00,
            0x30, 0x2E, 0x00, 0x00, 0x02, 0x00, 0x18, 0x00, 0x00, 0x8F, 0x03, 0x00,
            0x00, 0x00, 0x00, 0x00, 0x00, 0x00, 0x00, 0xB0, 0x19, 0x00, 0x00, 0x03,
            0x00, 0x10, 0x00, 0x00, 0x36, 0x03, 0x00, 0x00, 0x00, 0x00, 0x00, 0x00,
            0x00, 0x00, 0x90, 0x1B, 0x00, 0x80, 0x01, 0x00, 0x30, 0x00, 0x00, 0x72,
            0x03, 0x00, 0x00, 0x00, 0x00, 0x00, 0x00, 0x00, 0x00, 0xD8, 0x1B, 0x00,
            0x80, 0x00, 0x00, 0x60, 0x00, 0x00, 0x76, 0x02, 0x00, 0x00, 0x00, 0x00,
            0x00, 0x00, 0x00, 0x00, 0x30, 0xBC, 0x00, 0x40, 0x00, 0x00, 0x40, 0x00,
            0xC0, 0x87, 0x03, 0x00, 0x00, 0x00, 0x00, 0x00, 0x00, 0x00, 0x00, 0x70,
            0xCD, 0x02, 0x40, 0x00, 0x1F, 0xC0, 0x00, 0xB0, 0xAE, 0x01, 0x00, 0x00,
            0x00, 0x00, 0x00, 0x00, 0x00, 0x00, 0xC0, 0x07, 0x0F, 0x60, 0xE0, 0xFF,
            0x80, 0x00, 0x1E, 0xF8, 0x00, 0x00, 0x00, 0x00, 0x00, 0x00, 0x00, 0x00,
            0x00, 0x80, 0x01, 0xF0, 0x3C, 0x7A, 0xE1, 0x07, 0xA7, 0x01, 0x30, 0x00,
            0x00, 0x00, 0x00, 0x00, 0x00, 0x00, 0x00, 0x00, 0x00, 0x01, 0x40, 0x8B,
            0x1F, 0x00, 0xBF, 0x7C, 0x00, 0x20, 0x00, 0x00, 0x00, 0x00, 0x00, 0x00,
            0x00, 0x00, 0x00, 0x80, 0x01, 0x00, 0xF1, 0x03, 0x00, 0xF8, 0x12, 0x00,
            0x30, 0x00, 0x00, 0x00, 0x00, 0x00, 0x00, 0x00, 0x00, 0x00, 0x00, 0x01,
            0x00, 0x3D, 0x00, 0x00, 0xC0, 0x27, 0x00, 0x20, 0x00, 0x00, 0x00, 0x00,
            0x00, 0x00, 0x00, 0x00, 0x00, 0x80, 0x01, 0x00, 0x49, 0x00, 0x02, 0x00,
            0x12, 0x00, 0x20, 0x00, 0x00, 0x00, 0x00, 0x00, 0x00, 0x00, 0x00, 0x00,
            0x00, 0x01, 0x00, 0x1D, 0xC0, 0x3F, 0x00, 0x26, 0x00, 0x30, 0x00, 0x00,
            0x00, 0x00, 0x00, 0x00, 0x00, 0x00, 0x00, 0x80, 0x00, 0x00, 0x09, 0xE0,
            0xFF, 0x01, 0x16, 0x00, 0x20, 0x00, 0x00, 0x00, 0x00, 0x00, 0x00, 0x00,
            0x00, 0x00, 0x00, 0x01, 0x00, 0x0D, 0xF0, 0xFF, 0x01, 0x26, 0x00, 0x30,
            0x00, 0x00, 0x00, 0x00, 0x00, 0x00, 0x00, 0x00, 0x00, 0x80, 0x01, 0x00,
            0x19, 0xF8, 0xFF, 0x07, 0x12, 0x00, 0x20, 0x00, 0x00, 0x00, 0x00, 0x00,
            0x00, 0x00, 0x00, 0x00, 0x00, 0x01, 0x00, 0x0D, 0xFC, 0xFF, 0x07, 0x26,
            0x00, 0x20, 0x00, 0x00, 0x00, 0x00, 0x00, 0x00, 0x00, 0x00, 0x00, 0x80,
            0x01, 0x00, 0x09, 0xFC, 0xFF, 0x07, 0x16, 0x00, 0x30, 0x00, 0x00, 0x00,
            0x00, 0x00, 0x00, 0x00, 0x00, 0x00, 0x00, 0x01, 0x00, 0x0D, 0xFC, 0xFF,
            0x07, 0x26, 0x00, 0x20, 0x00, 0x00, 0x00, 0x00, 0x00, 0x00, 0x00, 0x00,
            0x00, 0x80, 0x01, 0x00, 0x19, 0xF4, 0xFF, 0x0D, 0x12, 0x00, 0x30, 0x00,
            0x00, 0x00, 0x00, 0x00, 0x00, 0x00, 0x00, 0x00, 0x00, 0x01, 0x00, 0x0D,
            0xEC, 0xFF, 0x07, 0x26, 0x00, 0x20, 0x00, 0x00, 0x00, 0x00, 0x00, 0x00,
            0x00, 0x00, 0x00, 0x80, 0x01, 0x00, 0x09, 0xDC, 0x7F, 0x06, 0x16, 0x00,
            0x30, 0x00, 0x00, 0x00, 0x00, 0x00, 0x00, 0x00, 0x00, 0x00, 0x00, 0x01,
            0x00, 0x0D, 0x08, 0x1F, 0x06, 0x26, 0x00, 0x20, 0x00, 0x00, 0x00, 0x00,
            0x00, 0x00, 0x00, 0x00, 0x00, 0x80, 0x01, 0x00, 0x19, 0x1C, 0x0E, 0x06,
            0x12, 0x00, 0x20, 0x00, 0x00, 0x00, 0x00, 0x00, 0x00, 0x00, 0x00, 0x00,
            0x00, 0x01, 0x00, 0x0D, 0x18, 0x1E, 0x06, 0x26, 0x00, 0x30, 0x00, 0x00,
            0x00, 0x00, 0x00, 0x00, 0x00, 0x00, 0x00, 0x80, 0x01, 0x00, 0x09, 0xFC,
            0xF3, 0x0F, 0x16, 0x00, 0x20, 0x00, 0x00, 0x00, 0x00, 0x00, 0x00, 0x00,
            0x00, 0x00, 0x00, 0x01, 0x00, 0x0D, 0xFC, 0xF1, 0x07, 0x26, 0x00, 0x30,
            0x00, 0x00, 0x00, 0x00, 0x00, 0x00, 0x00, 0x00, 0x00, 0x80, 0x00, 0x00,
            0x19, 0xF8, 0xEB, 0x03, 0x12, 0x00, 0x20, 0x00, 0x00, 0x00, 0x00, 0x00,
            0x00, 0x00, 0x00, 0x00, 0x00, 0x01, 0x00, 0x0D, 0xC0, 0x7F, 0x00, 0x16,
            0x00, 0x20, 0x00, 0x00, 0x00, 0x00, 0x00, 0x00, 0x00, 0x00, 0x00, 0x80,
            0x01, 0x00, 0x19, 0x80, 0x7F, 0x00, 0x27, 0x00, 0x30, 0x00, 0x00, 0x00,
            0x00, 0x00, 0x00, 0x00, 0x00, 0x00, 0x00, 0x01, 0x80, 0x39, 0xC0, 0x7F,
            0x00, 0x33, 0x00, 0x20, 0x00, 0x00, 0x00, 0x00, 0x00, 0x00, 0x00, 0x00,
            0x00, 0x80, 0x01, 0xC0, 0x73, 0x00, 0x55, 0xC0, 0xD9, 0x00, 0x30, 0x00,
            0x00, 0x00, 0x00, 0x00, 0x00, 0x00, 0x00, 0x00, 0x00, 0x01, 0x70, 0xE6,
            0x00, 0x15, 0xE0, 0xCC, 0x01, 0x20, 0x00, 0x00, 0x00, 0x00, 0x00, 0x00,
            0x00, 0x00, 0x00, 0x80, 0x01, 0x1C, 0x8C, 0x03, 0x00, 0x70, 0x06, 0x07,
            0x20, 0x00, 0x00, 0x00, 0x00, 0x00, 0x00, 0x00, 0x00, 0x00, 0x00, 0x01,
            0x07, 0xB0, 0x03, 0x00, 0x9C, 0x03, 0x1C, 0x30, 0x00, 0x00, 0x00, 0x00,
            0x00, 0x00, 0x00, 0x00, 0x00, 0x80, 0x81, 0x01, 0x60, 0x0E, 0x00, 0xAC,
            0x00, 0x70, 0x60, 0x00, 0x00, 0x00, 0x00, 0x00, 0x00, 0x00, 0x00, 0x00,
            0xC0, 0xE7, 0x00, 0x40, 0x1C, 0x00, 0x4E, 0x00, 0xC0, 0x79, 0x01, 0x00,
            0x00, 0x00, 0x00, 0x00, 0x00, 0x00, 0x00, 0x70, 0x3E, 0x00, 0xC0, 0x38,
            0x80, 0x43, 0x00, 0x00, 0xCF, 0x01, 0x00, 0x00, 0x00, 0x00, 0x00, 0x00,
            0x00, 0x00, 0x30, 0x19, 0x00, 0x80, 0xE1, 0xC0, 0x61, 0x00, 0x00, 0x16,
            0x03, 0x00, 0x00, 0x00, 0x00, 0x00, 0x00, 0x00, 0x00, 0x90, 0x1B, 0x00,
            0x00, 0xE1, 0xE0, 0x30, 0x00, 0x00, 0x76, 0x03, 0x00, 0x00, 0x00, 0x00,
            0x00, 0x00, 0x00, 0x00, 0xD8, 0x1B, 0x00, 0x00, 0x83, 0x3B, 0x10, 0x00,
            0x00, 0x72, 0x02, 0x00, 0x00, 0x00, 0x00, 0x00, 0x00, 0x00, 0x00, 0x90,
            0x19, 0x00, 0x00, 0x02, 0x1F, 0x18, 0x00, 0x00, 0x77, 0x03, 0x00, 0x00,
            0x00, 0x00, 0x00, 0x00, 0x00, 0x00, 0x30, 0x3C, 0x00, 0x00, 0x06, 0x2E,
            0x08, 0x00, 0xC0, 0x07, 0x03, 0x00, 0x00, 0x00, 0x00, 0x00, 0x00, 0x00,
            0x00, 0xE0, 0xCF, 0x01, 0x00, 0x04, 0x00, 0x0C, 0x00, 0xB0, 0xFC, 0x01,
            0x00, 0x00, 0x00, 0x00, 0x00, 0x00, 0x00, 0x00, 0xC0, 0x9D, 0x07, 0x00,
            0x0C, 0x00, 0x06, 0x00, 0x58, 0x6E, 0x00, 0x00, 0x00, 0x00, 0x00, 0x00,
            0x00, 0x00, 0x00, 0x00, 0x30, 0x0C, 0x00, 0x08, 0x00, 0x02, 0x00, 0x8E,
            0x03, 0x00, 0x00, 0x00, 0x00, 0x00, 0x00, 0x00, 0x00, 0x00, 0x00, 0xC0,
            0x79, 0x00, 0x10, 0x00, 0x02, 0xC0, 0x73, 0x00, 0x00, 0x00, 0x00, 0x00,
            0x00, 0x00, 0x00, 0x00, 0x00, 0x00, 0x00, 0xE3, 0x00, 0x30, 0x00, 0x03,
            0x60, 0x18, 0x00, 0x00, 0x00, 0x00, 0x00, 0x00, 0x00, 0x00, 0x00, 0x00,
            0x00, 0x00, 0x8E, 0x07, 0x20, 0x80, 0x01, 0x38, 0x0F, 0x00, 0x00, 0x00,
            0x00, 0x00, 0x00, 0x00, 0x00, 0x00, 0x00, 0x00, 0x00, 0x38, 0x1C, 0x60,
            0x80, 0x00, 0xCE, 0x01, 0x00, 0x00, 0x00, 0x00, 0x00, 0x00, 0x00, 0x00,
            0x00, 0x00, 0x00, 0x00, 0xE0, 0x69, 0x40, 0xC0, 0x80, 0x63, 0x00, 0x00,
            0x00, 0x00, 0x00, 0x00, 0x00, 0x00, 0x00, 0x00, 0x00, 0x00, 0x00, 0x80,
            0xE3, 0xC0, 0x40, 0xE0, 0x38, 0x00, 0x00, 0x00, 0x00, 0x00, 0x00, 0x00,
            0x00, 0x00, 0x00, 0x00, 0x00, 0x00, 0x00, 0x1C, 0x87, 0x20, 0x38, 0x0F,
            0x00, 0x00, 0x00, 0x00, 0x00, 0x00, 0x00, 0x00, 0x00, 0x00, 0x00, 0x00,
            0x00, 0x00, 0x38, 0x8D, 0x31, 0x8E, 0x01, 0x00, 0x00, 0x00, 0x00, 0x00,
            0x00, 0x00, 0x00, 0x00, 0x00, 0x00, 0x00, 0x00, 0x00, 0xE0, 0x38, 0xBF,
            0xE3, 0x00, 0x00, 0x00, 0x00, 0x00, 0x00, 0x00, 0x00, 0x00, 0x00, 0x00,
            0x00, 0x00, 0x00, 0x00, 0x00, 0xE7, 0xFB, 0x3C, 0x00, 0x00, 0x00, 0x00,
            0x00, 0x00, 0x00, 0x00, 0x00, 0x00, 0x00, 0x00, 0x00, 0x00, 0x00, 0x00,
            0xCE, 0x60, 0x0A, 0x00, 0x00, 0x00, 0x00, 0x00, 0x00, 0x00, 0x00, 0x00,
            0x00, 0x00, 0x00, 0x00, 0x00, 0x00, 0x00, 0xB8, 0xCE, 0x07, 0x00, 0x00,
            0x00, 0x00, 0x00, 0x00, 0x00, 0x00, 0x00, 0x00, 0x00, 0x00, 0x00, 0x00,
            0x00, 0x00, 0xE0, 0xCE, 0x00, 0x00, 0x00, 0x00, 0x00, 0x00, 0x00, 0x00,
            0x00, 0x00, 0x00, 0x00, 0x00, 0x00, 0x00, 0x00, 0x00, 0xC0, 0x6C, 0x00,
            0x00, 0x00, 0x00, 0x00, 0x00, 0x00, 0x00, 0x00, 0x00, 0x00, 0x00, 0x00,
            0x00, 0x00, 0x00, 0x00, 0x80, 0x64, 0x00, 0x00, 0x00, 0x00, 0x00, 0x00,
            0x00, 0x00, 0x00, 0x00, 0x00, 0x00, 0x00, 0x00, 0x00, 0x00, 0x00, 0x80,
            0x3B, 0x00, 0x00, 0x00, 0x00, 0x00, 0x00, 0x00, 0x00, 0x00, 0x00, 0x00,
            0x00, 0x00, 0x00, 0x00, 0x00, 0x00, 0x00, 0x1F, 0x00, 0x00, 0x00, 0x00,
            0x00, 0x00, 0x00, 0x00, 0x00, 0x00, 0x00, 0x00, 0x00, 0x00, 0x00, 0x00,
            0x00, 0x00, 0x00, 0x00, 0x00, 0x00, 0x00, 0x00, 0x00, 0x00, 0x00, 0x00,
        };

    #else
        #define icon_width 75
        #define icon_height 42
        static uint8_t icon_bits[] = {
        0x00, 0x00, 0x00, 0x00, 0x50, 0x00, 0x00, 0x00, 0x00, 0x00, 0x00, 0x00,
        0x00, 0x00, 0x50, 0x00, 0x00, 0x00, 0x00, 0x00, 0x00, 0x00, 0x00, 0x00,
        0xA8, 0x00, 0x00, 0x00, 0x00, 0x00, 0x00, 0x00, 0x00, 0x00, 0x6C, 0x01,
        0x00, 0x00, 0x00, 0x00, 0x00, 0x00, 0x00, 0x00, 0x51, 0x02, 0x00, 0x00,
        0x00, 0x00, 0x00, 0x00, 0x00, 0x80, 0x88, 0x0C, 0x00, 0x00, 0x00, 0x00,
        0x00, 0x00, 0x00, 0x30, 0x04, 0x21, 0x00, 0x00, 0x00, 0x00, 0x00, 0x00,
        0x00, 0x08, 0x04, 0xC1, 0x00, 0x00, 0x00, 0x00, 0x00, 0x00, 0x00, 0x06,
        0x02, 0x02, 0x03, 0x00, 0x00, 0x00, 0x00, 0x00, 0x98, 0x00, 0x00, 0x00,
        0x68, 0x00, 0x00, 0x00, 0x00, 0x00, 0x34, 0x00, 0x01, 0x04, 0xD0, 0x01,
        0x00, 0x00, 0x00, 0x00, 0x5C, 0x00, 0x01, 0x04, 0x50, 0x01, 0x00, 0x00,
        0x00, 0x00, 0xA4, 0x80, 0x50, 0x08, 0xB4, 0x01, 0x00, 0x00, 0x00, 0x00,
        0x18, 0x45, 0xAC, 0x11, 0x41, 0x00, 0x00, 0x00, 0x00, 0x00, 0x10, 0x58,
        0x03, 0xD7, 0x40, 0x00, 0x00, 0x00, 0x00, 0x00, 0x00, 0x60, 0x20, 0x50,
        0x40, 0x00, 0x00, 0x00, 0x00, 0x00, 0x10, 0x10, 0x78, 0x10, 0x40, 0x00,
        0x00, 0x00, 0x00, 0x00, 0x10, 0x50, 0xFC, 0x21, 0x00, 0x00, 0x00, 0x00,
        0x00, 0x00, 0x10, 0x10, 0xFE, 0x53, 0x40, 0x00, 0x00, 0x00, 0x00, 0x00,
        0x10, 0x50, 0xFE, 0x43, 0x40, 0x00, 0x00, 0x00, 0x00, 0x00, 0x10, 0x20,
        0xFE, 0x12, 0x40, 0x00, 0x00, 0x00, 0x00, 0x00, 0x10, 0x10, 0x32, 0x61,
        0x00, 0x00, 0x00, 0x00, 0x00, 0x00, 0x10, 0x30, 0x56, 0x03, 0x40, 0x00,
        0x00, 0x00, 0x00, 0x00, 0x10, 0x20, 0xDE, 0x51, 0x40, 0x00, 0x00, 0x00,
        0x00, 0x00, 0x10, 0x10, 0xF8, 0x50, 0x00, 0x00, 0x00, 0x00, 0x00, 0x00,
        0x10, 0x68, 0x30, 0xA8, 0x40, 0x00, 0x00, 0x00, 0x00, 0x00, 0x10, 0xD4,
        0x40, 0x2C, 0x41, 0x00, 0x00, 0x00, 0x00, 0x00, 0x10, 0x81, 0x01, 0x12,
        0x44, 0x00, 0x00, 0x00, 0x00, 0x00, 0x6C, 0x00, 0x06, 0x05, 0xD8, 0x00,
        0x00, 0x00, 0x00, 0x00, 0x54, 0x80, 0x8C, 0x05, 0x20, 0x01, 0x00, 0x00,
        0x00, 0x00, 0x34, 0x00, 0x71, 0x00, 0xD0, 0x01, 0x00, 0x00, 0x00, 0x00,
        0xD4, 0x00, 0x20, 0x02, 0xB4, 0x00, 0x00, 0x00, 0x00, 0x00, 0x28, 0x03,
        0x02, 0x02, 0xAA, 0x00, 0x00, 0x00, 0x00, 0x00, 0x80, 0x0A, 0x04, 0xC1,
        0x06, 0x00, 0x00, 0x00, 0x00, 0x00, 0x00, 0x1A, 0x08, 0x20, 0x01, 0x00,
        0x00, 0x00, 0x00, 0x00, 0x00, 0xE8, 0x88, 0xD8, 0x00, 0x00, 0x00, 0x00,
        0x00, 0x00, 0x00, 0x40, 0x43, 0x16, 0x00, 0x00, 0x00, 0x00, 0x00, 0x00,
        0x00, 0x80, 0x7C, 0x05, 0x00, 0x00, 0x00, 0x00, 0x00, 0x00, 0x00, 0x00,
        0xCA, 0x02, 0x00, 0x00, 0x00, 0x00, 0x00, 0x00, 0x00, 0x00, 0xA8, 0x00,
        0x00, 0x00, 0x00, 0x00, 0x00, 0x00, 0x00, 0x00, 0x58, 0x00, 0x00, 0x00,
        0x00, 0x00, 0x00, 0x00, 0x00, 0x00, 0x20, 0x00, 0x00, 0x00, 0x00, 0x00,
        };
    #endif

#endif